packages/core/src/svgs/extra.svg

<svg width="24" height="24" viewBox="0 0 24 24" fill="none" xmlns="http://www.w3.org/2000/svg">
<g clip-path="url(#clip0_31_10175)">
<path d="M0 0H24V24H0V0Z" fill="url(#paint0_linear_31_10175)"/>
<path fill-rule="evenodd" clip-rule="evenodd" d="M11.9999 19.2858C13.9322 19.2858 15.7854 18.5182 17.1517 17.1518C18.5181 15.7855 19.2857 13.9324 19.2857 12.0001C19.2857 10.0678 18.5181 8.21463 17.1517 6.84829C15.7854 5.48196 13.9322 4.71436 11.9999 4.71436C10.0677 4.71436 8.21451 5.48196 6.84817 6.84829C5.48183 8.21463 4.71423 10.0678 4.71423 12.0001C4.71423 13.9324 5.48183 15.7855 6.84817 17.1518C8.21451 18.5182 10.0677 19.2858 11.9999 19.2858ZM11.9999 18.4286C13.7049 18.4286 15.34 17.7513 16.5456 16.5458C17.7512 15.3402 18.4285 13.705 18.4285 12.0001C18.4285 10.2951 17.7512 8.65997 16.5456 7.45438C15.34 6.24879 13.7049 5.5715 11.9999 5.5715C10.295 5.5715 8.65985 6.24879 7.45426 7.45438C6.24867 8.65997 5.57138 10.2951 5.57138 12.0001C5.57138 13.705 6.24867 15.3402 7.45426 16.5458C8.65985 17.7513 10.295 18.4286 11.9999 18.4286Z" fill="#B0D1FA"/>
<path d="M11.6057 15.4286V14.3829H9.55713C9.44948 14.3829 9.34289 14.3616 9.24353 14.3201C9.14417 14.2786 9.05402 14.2179 8.9783 14.1414C8.90257 14.0648 8.84277 13.9741 8.80236 13.8743C8.76194 13.7745 8.74172 13.6677 8.74285 13.56C8.74285 13.11 9.11142 12.6429 9.55713 12.6429H11.1428V11.7129H9.55713C9.31384 11.7134 9.07305 11.7621 8.8486 11.8559C8.62415 11.9498 8.42045 12.0871 8.24922 12.26C8.07798 12.4328 7.94257 12.6377 7.85077 12.8631C7.75897 13.0884 7.71258 13.3296 7.71428 13.5729C7.71428 14.5972 8.53713 15.4286 9.55713 15.4286H11.6057Z" fill="#146AE5"/>
<path d="M8.09998 12.4283C8.39998 12.6083 8.8714 12.7712 9.39855 12.6683C9.86569 12.5741 9.44998 12.1969 8.89712 11.8369C8.58231 11.9574 8.3066 12.162 8.09998 12.4283Z" fill="#194989"/>
<path d="M11.6057 9V10.0457H9.55709C9.44943 10.0457 9.34284 10.0671 9.24348 10.1085C9.14413 10.15 9.05398 10.2107 8.97825 10.2872C8.90253 10.3638 8.84272 10.4545 8.80231 10.5543C8.7619 10.6541 8.74167 10.7609 8.7428 10.8686C8.7428 11.3186 9.11138 11.5714 9.55709 11.5714H11.1428V12.6429H9.55709C9.31775 12.6503 9.07936 12.6096 8.85606 12.5231C8.63276 12.4367 8.42912 12.3062 8.25722 12.1395C8.08532 11.9728 7.94868 11.7733 7.8554 11.5527C7.76212 11.3322 7.71412 11.0952 7.71423 10.8557C7.71423 9.83143 8.53709 9 9.55709 9H11.6057ZM13.1014 15.4286L16.2857 11.1429H15.1542L11.9999 15.4286H13.1014Z" fill="#146AE5"/>
<path d="M13.4742 13.4227L14.01 14.2027L14.5114 13.5298L13.9071 12.8398L13.4785 13.4227H13.4742Z" fill="#1D4988"/>
<path d="M15.1843 15.4288L12 11.1431H13.1314L16.2857 15.4288H15.1843Z" fill="#146AE5"/>
</g>
<defs>
<linearGradient id="paint0_linear_31_10175" x1="4.46571" y1="4.16143" x2="29.2071" y2="32.58" gradientUnits="userSpaceOnUse">
<stop stop-color="#1A1E21"/>
<stop offset="1" stop-color="#06060A"/>
</linearGradient>
<clipPath id="clip0_31_10175">
<rect width="24" height="24" fill="white"/>
</clipPath>
</defs>
</svg>

<svg xmlns="http://www.w3.org/2000/svg" width="24" height="24" fill="none" viewBox="0 0 24 24"><g clip-path="url(#a)"><path fill="url(#b)" d="M0 0h24v24H0z"/><path fill="#B0D1FA" fill-rule="evenodd" d="M12 19.286a7.285 7.285 0 1 0 0-14.571 7.285 7.285 0 0 0 0 14.57m0-.857A6.429 6.429 0 1 0 12 5.57a6.429 6.429 0 0 0 0 12.858" clip-rule="evenodd"/><path fill="#146AE5" d="M11.606 15.429v-1.046H9.557a.814.814 0 0 1-.814-.823c0-.45.368-.917.814-.917h1.586v-.93H9.557a1.85 1.85 0 0 0-1.843 1.86c0 1.024.823 1.856 1.843 1.856z"/><path fill="#194989" d="M8.1 12.428c.3.18.771.343 1.299.24.467-.094.051-.471-.502-.831-.315.12-.59.325-.797.591"/><path fill="#146AE5" d="M11.606 9v1.046H9.557a.815.815 0 0 0-.814.823c0 .45.368.702.814.702h1.586v1.072H9.557a1.79 1.79 0 0 1-1.843-1.787C7.714 9.83 8.537 9 9.557 9zm1.495 6.429 3.185-4.286h-1.132L12 15.429z"/><path fill="#1D4988" d="m13.474 13.423.536.78.501-.673-.604-.69-.428.583z"/><path fill="#146AE5" d="M15.184 15.429 12 11.143h1.131l3.155 4.286z"/></g><defs><linearGradient id="b" x1="4.466" x2="29.207" y1="4.161" y2="32.58" gradientUnits="userSpaceOnUse"><stop stop-color="#1A1E21"/><stop offset="1" stop-color="#06060A"/></linearGradient><clipPath id="a"><path fill="#fff" d="M0 0h24v24H0z"/></clipPath></defs></svg>
